proprietary/assets/src/logos/digid-machtigen.svg

<svg width="42" height="42" viewBox="0 0 42 42" fill="none" xmlns="http://www.w3.org/2000/svg">
  <path d="M35.5455 0.5H6.45455C3.16594 0.5 0.5 3.16594 0.5 6.45455V35.5455C0.5 38.8341 3.16594 41.5 6.45455 41.5H35.5455C38.8341 41.5 41.5 38.8341 41.5 35.5455V6.45455C41.5 3.16594 38.8341 0.5 35.5455 0.5Z" fill="black" stroke="#EDEDED"/>
  <path d="M25.4064 31.3616H27.0672V24.0587L25.4064 24.1328V31.3616Z" fill="#E17000"/>
  <path d="M27.2139 22.031C27.2139 21.4731 26.8613 21.0763 26.2293 21.0763C25.5979 21.0763 25.2597 21.5168 25.2597 22.031C25.2597 22.5894 25.5979 22.9712 26.2293 22.9712C26.8613 22.9712 27.2139 22.5451 27.2139 22.031Z" fill="#E17000"/>
  <path fill-rule="evenodd" clip-rule="evenodd" d="M29.168 21.7227V31.3616H31.872C35.0309 31.3616 37 29.7456 37 26.2629C37 23.3536 35.1931 21.7227 31.9307 21.7227H29.168ZM31.9456 29.9072H30.9317V23.1771H31.8128C33.8848 23.1771 35.1483 24.2645 35.1483 26.3509C35.1483 28.864 33.8848 29.9072 31.9456 29.9072Z" fill="#E17000"/>
  <path d="M16.3264 31.3616H14.6661V24.1328L16.3264 24.0587V31.3616Z" fill="#EDEDED"/>
  <path d="M15.4885 21.0763C16.1205 21.0763 16.4731 21.4731 16.4731 22.031C16.4731 22.5451 16.1205 22.9712 15.4885 22.9712C14.8565 22.9712 14.5189 22.5894 14.5189 22.031C14.5189 21.5168 14.8565 21.0763 15.4885 21.0763Z" fill="#EDEDED"/>
  <path fill-rule="evenodd" clip-rule="evenodd" d="M5.27626 31.3616V21.7227H8.03893C11.3008 21.7227 13.1083 23.3536 13.1083 26.2629C13.1083 29.7456 11.1392 31.3616 7.98026 31.3616H5.27626ZM7.03999 29.9072H8.05386C9.99306 29.9072 11.2565 28.864 11.2565 26.3509C11.2565 24.2645 9.99306 23.1771 7.92159 23.1771H7.03999V29.9072Z" fill="#EDEDED"/>
  <path fill-rule="evenodd" clip-rule="evenodd" d="M22.0864 29.9515H20.3525C19.6763 29.9515 19.4267 29.775 19.4267 29.4518C19.4267 29.2752 19.544 29.0992 19.7349 28.9963C20.0144 29.0694 20.3227 29.1136 20.6459 29.1136C22.6443 29.1136 23.7323 28.2763 23.7323 26.6747C23.7323 26.0427 23.4672 25.5435 23.1584 25.3078V25.264H24.2757V24.1616H21.9243C21.5573 24.0587 21.2043 24.015 20.808 24.015C18.9707 24.015 17.7808 24.9702 17.7808 26.7334C17.7808 27.6736 18.1627 28.2907 18.824 28.6582V28.7019C18.2949 28.9078 18.016 29.3339 18.016 29.7894C18.016 30.2155 18.2512 30.583 18.5888 30.7595V30.8032C17.8688 31.112 17.4869 31.6848 17.4869 32.3755C17.4869 33.5072 18.4421 34.2416 20.5136 34.2416C23.1584 34.2416 24.3051 33.1254 24.3051 31.744C24.3051 30.5686 23.6437 29.9515 22.0864 29.9515ZM20.7781 25.1904C21.704 25.1904 22.1888 25.6608 22.1888 26.5424C22.1888 27.5558 21.6603 27.9819 20.7488 27.9819C19.8971 27.9819 19.3675 27.5856 19.3675 26.6448C19.3675 25.6608 19.9557 25.1904 20.7781 25.1904ZM22.8208 32.0379C22.8208 32.6112 22.2475 33.008 20.6608 33.008C19.5296 33.008 19.0299 32.6256 19.0299 32.0523C19.0299 31.7147 19.1472 31.4795 19.4267 31.2886L21.8357 31.3616C22.5563 31.3766 22.8208 31.6118 22.8208 32.0379Z" fill="#EDEDED"/>
</svg>

<svg xmlns="http://www.w3.org/2000/svg" width="40" height="40" fill="none" viewBox="0 0 42 42">
  <g class="variant=digid">
    <path fill="#000" stroke="#D1D1D1" d="M35.545.5H6.455A5.955 5.955 0 0 0 .5 6.455v29.09A5.955 5.955 0 0 0 6.455 41.5h29.09a5.954 5.954 0 0 0 5.955-5.955V6.455A5.955 5.955 0 0 0 35.545.5Z" class="background"/>
    <g class="digid">
      <g class="id">
        <path fill="#E17000" d="M25.406 31.362h1.661v-7.303l-1.66.074v7.229Zm1.808-9.331c0-.558-.353-.955-.985-.955-.631 0-.97.44-.97.955 0 .558.339.94.97.94.632 0 .985-.426.985-.94Z"/>
        <path fill="#E17000" fill-rule="evenodd" d="M29.168 21.723v9.639h2.704c3.159 0 5.128-1.616 5.128-5.1 0-2.908-1.807-4.54-5.07-4.54h-2.762Zm2.778 8.184h-1.014v-6.73h.88c2.073 0 3.336 1.088 3.336 3.174 0 2.513-1.263 3.556-3.202 3.556Z" clip-rule="evenodd"/>
      </g>
      <g class="dig">
        <path fill="#fff" d="M16.326 31.362h-1.66v-7.23l1.66-.073v7.303Zm-.837-10.286c.631 0 .984.397.984.955 0 .514-.352.94-.984.94-.633 0-.97-.382-.97-.94 0-.514.338-.955.97-.955Z"/>
        <path fill="#fff" fill-rule="evenodd" d="M5.276 31.362v-9.64H8.04c3.262 0 5.07 1.632 5.07 4.54 0 3.484-1.97 5.1-5.129 5.1H5.276Zm1.764-1.455h1.014c1.94 0 3.203-1.043 3.203-3.556 0-2.086-1.264-3.174-3.335-3.174H7.04v6.73Zm15.046.044h-1.733c-.677 0-.926-.176-.926-.5 0-.176.117-.352.308-.455.28.073.588.118.91.118 2 0 3.087-.838 3.087-2.44 0-.631-.265-1.13-.574-1.366v-.044h1.118v-1.102h-2.352a4.012 4.012 0 0 0-1.116-.147c-1.837 0-3.027.955-3.027 2.718 0 .94.382 1.558 1.043 1.925v.044c-.53.206-.808.632-.808 1.087 0 .426.235.794.573.97v.044c-.72.309-1.102.882-1.102 1.573 0 1.131.955 1.866 3.027 1.866 2.644 0 3.791-1.117 3.791-2.498 0-1.175-.661-1.793-2.219-1.793Zm-1.308-4.76c.926 0 1.41.47 1.41 1.351 0 1.014-.528 1.44-1.44 1.44-.85 0-1.38-.396-1.38-1.337 0-.984.588-1.455 1.41-1.455Zm2.043 6.847c0 .573-.574.97-2.16.97-1.131 0-1.631-.382-1.631-.956 0-.337.117-.572.397-.763l2.409.073c.72.015.985.25.985.676Z" clip-rule="evenodd"/>
      </g>
    </g>
  </g>
</svg>
